X:1
T:Title
%%score { ( 1 4 ) | ( 2 3 ) }
L:1/8
M:3/4
K:F
V:1 treble nm="Grand Piano"
V:4 treble 
V:2 bass 
V:3 bass 
V:1
 z2 z2[Q:1/4=100] c>A | f3 c AF | G2 C2 FA | D[DGB] [FA]2 .[CEG]2 |[M:2/4] [A,F]4 |[M:1/4] c>A | %6
[M:3/4] f3 c AF | G2 C2 FA | D[DGB] [FA]2 .[CEG]2 |[M:2/4] [A,F]4 |[M:1/4] [CAc]>[_EFA] | %11
[M:3/4] [DB]>c [Fd]2 [EG]>[EB] | [FA]>[GB] [Ac]2 f>c | dB A2 [EG]2 | F6 |] %15
V:2
 z2 z2 C>A, | [F,F]3 C A,F, | G,2 C,2 [A,C][F,C] | B,G, C2 z B, |[M:2/4] F,4 |[M:1/4] C>A, | %6
[M:3/4] [F,F]3 C A,F, | G,2 C,2 [A,C][F,C] | B,G, C2 z B, |[M:2/4] F,4 |[M:1/4] F,>F, | %11
[M:3/4] z z/ C/ [B,,B,]2 [C,G,]>[C,C] | [F,C]2 [F,C]2[K:treble] [A,CF]>[F,A,F] | %13
 [B,F][G,DG] [CF]2[K:bass] [C,B,]2 | [F,A,]6 |] %15
V:3
 x6 | x6 | x6 | z2 z2 C,2 |[M:2/4] x4 |[M:1/4] x2 |[M:3/4] x6 | x6 | z2 z2 C,2 |[M:2/4] x4 | %10
[M:1/4] x2 |[M:3/4] B,,2 z2 z2 | x4[K:treble] x2 | x4[K:bass] x2 | x6 |] %15
V:4
 x6 | x6 | x6 | x6 |[M:2/4] x4 |[M:1/4] x2 |[M:3/4] x6 | x6 | x6 |[M:2/4] x4 |[M:1/4] x2 | %11
[M:3/4] F2 z2 z2 | x6 | x6 | x6 |] %15

